local/share/icons/dracula-icons-main/scalable/apps/musescore.svg

<?xml version="1.0" encoding="UTF-8"?>
<svg xmlns="http://www.w3.org/2000/svg" xmlns:xlink="http://www.w3.org/1999/xlink" width="64" height="64" viewBox="0 0 64 64">
<path fill-rule="nonzero" fill="rgb(12.54902%, 47.843137%, 71.764706%)" fill-opacity="0.99608" d="M 58.996094 32 C 58.996094 46.910156 46.910156 58.996094 32 58.996094 C 17.085938 58.996094 5 46.910156 5 32 C 5 17.085938 17.085938 5 32 5 C 46.910156 5 58.996094 17.085938 58.996094 32 Z M 58.996094 32 "/>
<path fill-rule="nonzero" fill="rgb(100%, 100%, 100%)" fill-opacity="1" d="M 43.777344 22.976562 C 43.777344 23.667969 43.21875 24.226562 42.527344 24.226562 C 41.832031 24.226562 41.273438 23.667969 41.273438 22.976562 C 41.273438 22.28125 41.832031 21.722656 42.527344 21.722656 C 43.21875 21.722656 43.777344 22.28125 43.777344 22.976562 Z M 43.777344 22.976562 "/>
<path fill="none" stroke-width="2.5" stroke-linecap="round" stroke-linejoin="miter" stroke="rgb(100%, 100%, 100%)" stroke-opacity="1" stroke-miterlimit="4" d="M 48.501654 28.000269 L 48.501654 37.49901 M 36.501603 32.500288 L 36.501603 37.49901 M 26.500263 32.500288 L 26.500263 42.793837 M 16.498922 32.500288 L 16.498922 42.793837 M 26.484678 32.500288 C 26.484678 30.719761 25.534025 29.075598 23.991161 28.183386 C 22.448297 27.295071 20.550887 27.295071 19.008023 28.183386 C 17.46516 29.075598 16.518402 30.719761 16.518402 32.500288 M 36.482123 32.500288 C 36.482123 30.719761 35.531469 29.075598 33.992502 28.183386 C 32.449638 27.295071 30.548331 27.295071 29.009364 28.183386 C 27.4665 29.075598 26.515847 30.719761 26.515847 32.500288 M 48.482173 37.292516 C 48.482173 39.431486 47.344506 41.406819 45.489953 42.474356 C 43.639296 43.545789 41.360065 43.545789 39.509408 42.474356 C 37.658751 41.406819 36.517188 39.431486 36.517188 37.292516 " transform="matrix(1.0026, 0, 0, 1.0026, -0.084787, -0.084787)"/>
<path fill="none" stroke-width="2.5" stroke-linecap="round" stroke-linejoin="miter" stroke="rgb(100%, 100%, 100%)" stroke-opacity="1" stroke-miterlimit="4" d="M 48.482173 -23.001547 C 48.482173 -20.862577 47.344506 -18.887244 45.489953 -17.819707 C 43.639296 -16.748274 41.360065 -16.748274 39.509408 -17.819707 C 37.658751 -18.887244 36.517188 -20.862577 36.517188 -23.001547 " transform="matrix(1.0026, 0, 0, -1.0026, -0.084787, -0.084787)"/>
</svg>

<svg width="64" height="64" version="1.1" viewBox="0 0 64 64" xmlns="http://www.w3.org/2000/svg">
 <g transform="matrix(1.0026 0 0 1.0026 -.084787 -.084787)">
  <circle cx="32" cy="32" r="26.929" fill="#207ab7" fill-opacity=".99608" stroke-width="1.0016"/>
  <circle cx="42.5" cy="23" r="1.25" fill="#fff"/>
  <path d="m48.5 28v9.5m-12-5v5m-10-5v10.293m-10-10.293v10.293m9.983-10.293a4.983 4.983 0 0 0-2.4915-4.3154 4.983 4.983 0 0 0-4.983 0 4.983 4.983 0 0 0-2.4915 4.3154m19.966 0a4.983 4.983 0 0 0-2.4915-4.3154 4.983 4.983 0 0 0-4.983 0 4.983 4.983 0 0 0-2.4915 4.3154m21.966 4.7943a5.983 5.983 0 0 1-2.9915 5.1814 5.983 5.983 0 0 1-5.983 0 5.983 5.983 0 0 1-2.9915-5.1814" fill="none" stroke="#fff" stroke-linecap="round" stroke-width="2.5"/>
  <path transform="scale(1,-1)" d="m48.483-23a5.983 5.983 0 0 1-2.9915 5.1814 5.983 5.983 0 0 1-5.983 0 5.983 5.983 0 0 1-2.9915-5.1814" fill="none" stroke="#fff" stroke-linecap="round" stroke-width="2.5"/>
 </g>
</svg>
